X:1
T:Oda a la Alegría
C:Ludwig van Beethoven
M:4/4
L:1/4
K:C
Q:1/4=120
E E F G | G F E D | C C D E | E D D2 |
E E F G | G F E D | C C D E | D C C2 |
D D E C | D E F E | C D E F | E D D2 |
E E F G | G F E D | C C D E | D C C2 |] 